X: 36
T:Appenzeller Lndlerli
M:3/4
L:1/8
C:trad
S:Hermann Fritz
R:Lndler
A:Appenzell, Schweiz
N:Original D-Dur (
K:G
(Bc)|(BG)(Bd)(Ac)|(BG)(Bd)d2 |(AF)(Ad)d2 |(BG)(Bd)d2 |(BG)(Bd)(Ac)|(BG)(
Bd)d2 |(cB)(AG)(FA)|G4   :|
|: G2 |(GA)(Ac)(ce)|(ed)(dg)(gf)|(fe)(ed)(dc)|(cB)(BA)G2 |(AB)(cB)(Ac)|(
Bd)(Ac)(Bd)|(cB)(AG)(FA)|G4   :|
